apex/img/logo.svg

<svg width="49" height="45" viewBox="0 0 49 45" fill="none" xmlns="http://www.w3.org/2000/svg">
<path d="M43.4657 44.0911C44.5608 44.0911 45.6084 43.8054 46.513 43.1388C49.1794 41.2819 49.7508 38.2345 47.9891 35.1396C42.9419 26.2356 37.8472 17.3793 32.8 8.52301C32.5143 7.99925 32.181 7.52311 31.8477 7.04696C31.3716 5.71375 30.5145 4.571 29.8955 3.33302C28.8004 1.23798 27.1339 0 24.7532 0C22.3724 0 20.6583 1.23798 19.5155 3.28541C17.9919 5.95183 16.4682 8.61824 14.9445 11.2847C10.2783 19.2363 5.6597 27.2356 0.850622 35.1396C-1.53011 38.9964 1.37438 44.472 5.993 44.1387C8.70703 43.9483 11.4211 44.1387 14.1351 44.1387H43.4657V44.0911ZM26.372 35.4253C28.0862 35.5205 36.4187 35.6157 38.1329 35.4253C36.9901 32.7589 35.9426 32.0446 33.7999 32.3779C31.2764 31.9018 22.0391 32.2351 19.4679 32.1875C15.3731 32.0922 11.2782 32.1399 7.13575 32.0922C6.99291 32.0922 6.80245 32.0446 6.46915 31.997C8.13566 29.0925 9.80217 26.2833 11.4211 23.5216C15.0398 17.3317 18.7061 11.1418 22.3248 4.95192C22.9438 3.9044 23.7056 3.28541 24.896 3.33302C26.134 3.38064 26.8006 4.38054 27.1339 5.28522C27.4672 6.1899 27.0387 7.28503 26.4673 8.18971C23.3247 13.4749 20.2298 18.8078 17.1348 24.093C16.0873 25.8547 12.659 31.4733 11.6115 33.2826C14.6112 33.7111 15.4207 33.2826 16.8491 30.8543C20.0869 25.3786 25.6578 16.0461 28.8956 10.5704C29.1337 10.1895 29.2289 9.52292 29.9431 9.99907C30.2288 9.61815 30.5621 9.28485 30.8002 8.90393C30.5621 9.28485 30.2288 9.61815 29.9431 9.99907C34.9427 18.8078 39.8946 27.6165 44.8941 36.4252C45.2751 37.0918 45.7036 37.7584 45.7036 38.5678C45.656 40.4248 43.5133 41.4723 41.7516 40.4724C41.0373 40.0439 40.5612 39.4249 40.1327 38.6631C36.7997 32.6636 33.419 26.7594 29.9908 20.8552C29.7527 19.8553 26.6577 14.7605 26.2292 13.8082C25.8483 13.094 25.515 13.1892 25.0865 13.8082C23.7532 15.7604 23.8961 17.0936 25.8483 19.8077C28.5147 24.5691 33.6095 33.6159 36.2759 38.3774C36.3711 38.5202 36.4663 38.6631 36.6092 38.8059C37.0853 39.282 37.7519 39.9487 37.5139 40.4724C37.2282 41.0438 36.2283 40.9009 35.6569 40.8533C31.9906 40.5676 28.2766 40.7581 24.6103 40.7581C19.9917 40.6153 15.3731 40.5676 10.7068 40.6153C8.89749 40.6153 7.13575 40.6153 5.32639 40.4724C4.08841 40.3772 3.23135 39.3297 3.27896 38.1869C3.27896 36.8061 4.51695 35.4729 6.08823 35.4253C8.65942 35.33 11.2306 35.4253 13.8018 35.4253C17.9919 35.4253 22.182 35.4253 26.372 35.4253Z" fill="url(#paint0_linear)"/>
<path d="M27.0865 29.521C27.8959 29.521 28.0388 29.1877 27.3722 28.2831C26.5151 27.0927 25.8485 25.8071 25.2295 24.4739C24.7057 23.3311 24.3724 23.5692 23.9439 24.2834C23.0868 25.8071 22.1822 27.2832 21.1823 28.9973C21.087 29.1877 21.2299 29.4734 21.4203 29.4734C23.4678 29.4734 25.2771 29.521 27.0865 29.521Z" fill="url(#paint1_linear)"/>
<defs>
<linearGradient id="paint0_linear" x1="-26.0603" y1="-19.2833" x2="257.774" y2="264.551" gradientUnits="userSpaceOnUse">
<stop offset="0.1124" stop-color="#E4C355"/>
<stop offset="0.2416" stop-color="#D76250"/>
</linearGradient>
<linearGradient id="paint1_linear" x1="9.11443" y1="85.1657" x2="115.411" y2="-301.9" gradientUnits="userSpaceOnUse">
<stop offset="0.1124" stop-color="#E4C355"/>
<stop offset="0.2416" stop-color="#D76250"/>
</linearGradient>
</defs>
</svg>

<svg width="49" height="45" fill="none" xmlns="http://www.w3.org/2000/svg"><path d="M43.466 44.091c1.095 0 2.142-.286 3.047-.952 2.666-1.857 3.238-4.905 1.476-8C42.942 26.237 37.847 17.38 32.8 8.524c-.286-.524-.619-1-.952-1.476-.476-1.333-1.333-2.476-1.953-3.714C28.8 1.238 27.134 0 24.753 0c-2.38 0-4.095 1.238-5.238 3.285l-4.57 8C10.277 19.236 5.66 27.235.85 35.14c-2.381 3.856.523 9.332 5.142 8.999 2.714-.19 5.428 0 8.142 0h29.33v-.048zm-17.094-8.666c1.714.096 10.047.19 11.76 0-1.142-2.666-2.19-3.38-4.332-3.047-2.524-.476-11.76-.143-14.332-.19-4.095-.096-8.19-.048-12.332-.096-.143 0-.334-.047-.667-.095 1.667-2.904 3.333-5.714 4.952-8.475 3.619-6.19 7.285-12.38 10.904-18.57.619-1.048 1.38-1.667 2.571-1.619 1.238.048 1.905 1.048 2.238 1.952.333.905-.095 2-.667 2.905-3.142 5.285-6.237 10.618-9.332 15.903-1.048 1.762-4.476 7.38-5.524 9.19 3 .428 3.81 0 5.238-2.429 3.238-5.475 8.809-14.808 12.047-20.284.238-.38.333-1.047 1.047-.57.286-.382.62-.715.857-1.096-.238.38-.571.714-.857 1.095 5 8.809 9.952 17.617 14.951 26.426.381.667.81 1.333.81 2.143-.048 1.857-2.19 2.904-3.952 1.904-.715-.428-1.19-1.047-1.62-1.809-3.332-6-6.713-11.904-10.141-17.808-.238-1-3.333-6.095-3.762-7.047-.38-.714-.714-.619-1.142 0-1.334 1.952-1.19 3.286.761 6 2.667 4.761 7.761 13.808 10.428 18.57.095.142.19.285.333.428.476.476 1.143 1.143.905 1.666-.286.572-1.286.429-1.857.381-3.666-.285-7.38-.095-11.047-.095-4.618-.143-9.237-.19-13.903-.143-1.81 0-3.571 0-5.38-.143a2.205 2.205 0 01-2.048-2.285c0-1.38 1.238-2.714 2.81-2.762 2.57-.095 5.142 0 7.713 0h12.57z" fill="url(#paint0_linear)"/><path d="M27.087 29.521c.809 0 .952-.333.285-1.238-.857-1.19-1.523-2.476-2.142-3.81-.524-1.142-.858-.904-1.286-.19-.857 1.524-1.762 3-2.762 4.714-.095.19.048.476.238.476 2.048 0 3.857.048 5.666.048z" fill="url(#paint1_linear)"/><defs><linearGradient id="paint0_linear" x1="-26.06" y1="-19.283" x2="257.774" y2="264.551" gradientUnits="userSpaceOnUse"><stop offset=".112" stop-color="#E4C355"/><stop offset=".242" stop-color="#D76250"/></linearGradient><linearGradient id="paint1_linear" x1="9.114" y1="85.166" x2="115.411" y2="-301.9" gradientUnits="userSpaceOnUse"><stop offset=".112" stop-color="#E4C355"/><stop offset=".242" stop-color="#D76250"/></linearGradient></defs></svg>
